X: 120
T:La Bastringue
M:4/4
L:1/8
Q:180
C:French Canadian
S:Transcribed  from Aly Bain "The Ruby" by S.C.
R:Reel
K:D
"D"{=f}[A2f2] ff [A2f2] ((3fgf|"A"e2)c2 "D" [D2d2] dd|"A"c2d2e-fec|"D"[D
2d2]e2{=f}[A2f2]d2|!
{=f}[A2f2]ff [A2f2]((3fgf|"A"e2)c2 "D"[D3d3] e|"G"g2 ((3fgf e2)d2|[1"A"c
dec "D"A2 dd:|[2"A"cdec "D"A2 ((3ABc||!
d2) fd adfd|"C"=c2 ec gcec|"D"d2 fd adfd|"A"b-gec "D"d-cBA|d2 fd adfd|!
"C"c2 ec gcec|"D"d2 fd adfd|[1"A"b-gec "D"d-cBA:|[2"A"b-gec {c}d2 [F2d2]
|]
